website/src/static/table/columnsresizing.svg

<svg width="144" height="80" viewBox="0 0 144 80" fill="none" xmlns="http://www.w3.org/2000/svg">
<g clip-path="url(#clip0_756_52421)">
<mask id="path-1-inside-1_756_52421" fill="white">
<path d="M76 0H144V80H76V0Z"/>
</mask>
<path d="M76 0H144V80H76V0Z" fill="#F4F5F9"/>
<path d="M115.528 34.4062V33.2727H122.283V34.4062H119.56V42H118.247V34.4062H115.528ZM123.775 42V33.2727H125.092V37.0653H129.443V33.2727H130.764V42H129.443V38.1946H125.092V42H123.775Z" fill="#191B23"/>
<path d="M144 79H76V81H144V79Z" fill="#E0E1E9" mask="url(#path-1-inside-1_756_52421)"/>
</g>
<g clip-path="url(#clip1_756_52421)">
<mask id="path-6-inside-3_756_52421" fill="white">
<path d="M0 0H76V80H0V0Z"/>
</mask>
<path d="M0 0H76V80H0V0Z" fill="#F4F5F9"/>
<path d="M12.5284 34.4062V33.2727H19.2827V34.4062H16.5597V42H15.2472V34.4062H12.5284ZM20.7752 42V33.2727H22.092V37.0653H26.4428V33.2727H27.7638V42H26.4428V38.1946H22.092V42H20.7752Z" fill="#191B23"/>
<path d="M76 80V81H77V80H76ZM75 0V80H77V0H75ZM76 79H0V81H76V79Z" fill="#E0E1E9" mask="url(#path-6-inside-3_756_52421)"/>
</g>
<path d="M75 0V80H77V0H75Z" fill="#6C6E79" mask="url(#path-4-inside-2_756_52421)"/>
<g filter="url(#filter0_d_756_52421)">
<path d="M74 42V48.01H72.98V44.54L67 50.01L72.98 55.47V51.99H74V58H74.02H77.98V51.99H79.04V55.46L85 49.99L79.04 44.53V48H77.98V42H74Z" fill="white"/>
<path d="M83.3402 49.99L80.0202 46.77V49.02H77.0002V43.06H76.9802V43.04H75.0402V49.04H71.9802V46.76L68.6602 50.01L71.9802 53.23V50.98H75.0402V56.98H75.0602H76.9802H77.0002V50.98H80.0202V53.24L83.3402 49.99Z" fill="#191B23"/>
</g>
<defs>
<filter id="filter0_d_756_52421" x="65.2" y="41.2" width="21.6" height="19.6" filterUnits="userSpaceOnUse" color-interpolation-filters="sRGB">
<feFlood flood-opacity="0" result="BackgroundImageFix"/>
<feColorMatrix in="SourceAlpha" type="matrix" values="0 0 0 0 0 0 0 0 0 0 0 0 0 0 0 0 0 0 127 0" result="hardAlpha"/>
<feOffset dy="1"/>
<feGaussianBlur stdDeviation="0.9"/>
<feColorMatrix type="matrix" values="0 0 0 0 0 0 0 0 0 0 0 0 0 0 0 0 0 0 0.65 0"/>
<feBlend mode="normal" in2="BackgroundImageFix" result="effect1_dropShadow_756_52421"/>
<feBlend mode="normal" in="SourceGraphic" in2="effect1_dropShadow_756_52421" result="shape"/>
</filter>
<clipPath id="clip0_756_52421">
<rect width="68" height="80" fill="white" transform="translate(76)"/>
</clipPath>
<clipPath id="clip1_756_52421">
<path d="M0 0H76V80H0V0Z" fill="white"/>
</clipPath>
</defs>
</svg>

<svg width="144" height="80" viewBox="0 0 144 80" fill="none" xmlns="http://www.w3.org/2000/svg">
  <path d="M76 0h68v80H76V0Z" fill="#F4F5F9"/>
  <path d="M115.53 34.4v-1.13h6.75v1.14h-2.72V42h-1.31v-7.6h-2.72Zm8.25 7.6v-8.73h1.31v3.8h4.35v-3.8h1.32V42h-1.32v-3.8h-4.35V42h-1.31Z" fill="#191B23"/>
  <path d="M144 79H76v2h68v-2Z" fill="#E0E1E9"/>
  <path d="M0 0h76v80H0V0Z" fill="#F4F5F9"/>
  <path d="M12.53 34.4v-1.13h6.75v1.14h-2.72V42h-1.31v-7.6h-2.72Zm8.25 7.6v-8.73h1.31v3.8h4.35v-3.8h1.32V42h-1.32v-3.8H22.1V42h-1.31Z" fill="#191B23"/>
  <path d="M46 33a1 1 0 1 1 0 2H36a1 1 0 1 1 0-2h10ZM43 38a1 1 0 0 0-1-1h-6a1 1 0 1 0 0 2h6a1 1 0 0 0 1-1ZM39 42a1 1 0 0 0-1-1h-2a1 1 0 1 0 0 2h2a1 1 0 0 0 1-1Z" fill="#A9ABB6"/>
  <path d="M76 80v1h1v-1h-1ZM75 0v80h2V0h-2Zm1 79H0v2h76v-2Z" fill="#E0E1E9"/>
  <path d="M75 0v80h2V0h-2Z" fill="#6C6E79"/>
  <g filter="url(#a)">
    <path d="M69.41 50 73 46.41V49h6v-2.58L82.58 50 79 53.59V51h-6v2.59L69.41 50ZM68 50l6 6v-4h4v4l6-6-6-6v4h-4v-4l-6 6Z" fill="#fff"/>
    <path d="M76.5 51h2.52v2.59L82.58 50l-3.56-3.58v2.6H73v-2.6L69.41 50 73 53.59V51h3.5Z" fill="#191B23"/>
  </g>
  <defs>
    <filter id="a" x="66.2" y="43.2" width="19.6" height="15.6" filterUnits="userSpaceOnUse" color-interpolation-filters="sRGB">
      <feFlood flood-opacity="0" result="BackgroundImageFix"/>
      <feColorMatrix in="SourceAlpha" values="0 0 0 0 0 0 0 0 0 0 0 0 0 0 0 0 0 0 127 0" result="hardAlpha"/>
      <feOffset dy="1"/>
      <feGaussianBlur stdDeviation=".9"/>
      <feColorMatrix values="0 0 0 0 0 0 0 0 0 0 0 0 0 0 0 0 0 0 0.65 0"/>
      <feBlend in2="BackgroundImageFix" result="effect1_dropShadow_756_52421"/>
      <feBlend in="SourceGraphic" in2="effect1_dropShadow_756_52421" result="shape"/>
    </filter>
  </defs>
</svg>
